X:9
T:Lakewind
R:reel
C:Allie Bennett
O:contempory Cape Breton
D:Allie Bennett, It's About Time
Z:Paul Stewart Cranford (P.S.C.), <http://www.cranfordpub.com>
L:1/8
M:C|
Q:333
K:D
e|fgfe dAFA|BcdB AFDF|G2 BG FAdf|gfed ceAd|
fgfe dAFA|BcdB AFDF|G2 BG FAdf|gecA d2 d:|
|:f|abag fedA|BcdB AFDF|G2 BG FAdf|gfed cefg|
abag fedA|BdgB AFDF|GABG FAdf|gecA d2 d:|
